packages/foundations/assets/icons/functional/images/file/image_16.svg

<svg width="16" height="16" viewBox="0 0 16 16" fill="none" xmlns="http://www.w3.org/2000/svg">
<g clip-path="url(#clip0_185_962)">
<path fill-rule="evenodd" clip-rule="evenodd" d="M12 2.39996C12.8435 2.39996 13.6046 3.14422 13.6001 3.99998V12C13.6001 12.8435 12.8417 13.6055 12 13.6H3.99996C3.15647 13.6 2.4042 12.8793 2.39996 12V3.99998C2.39996 3.15649 3.14618 2.40136 3.99996 2.39996H12ZM10.4 9.13118L8.56565 10.9657C8.37519 11.1561 8.10361 11.2364 7.84371 11.1846L5.66156 10.4632L3.99996 11.2936V12H12V10.7313L10.4 9.13118ZM12 3.99998H3.99996V9.50478L5.24219 8.88443C5.40034 8.80536 5.57926 8.78134 5.75099 8.81436L7.78316 9.48398L9.83428 7.43429C10.1467 7.12187 10.6532 7.12187 10.9656 7.43429L12 8.46798V3.99998ZM5.99996 4.79998C6.66277 4.79998 7.19996 5.33727 7.19996 5.99998C7.19996 6.66268 6.66277 7.19998 5.99996 7.19998C5.33716 7.19998 4.79996 6.66268 4.79996 5.99998C4.79996 5.33727 5.33716 4.79998 5.99996 4.79998Z" fill="#1A1C1F"/>
</g>
<defs>
<clipPath id="clip0_185_962">
<rect width="16" height="16" fill="white"/>
</clipPath>
</defs>
</svg>

<svg xmlns="http://www.w3.org/2000/svg" width="16" height="16" fill="none"><g clip-path="url(#a)"><path fill="#1A1C1F" fill-rule="evenodd" d="M12 2.4c.844 0 1.605.744 1.6 1.6v8c0 .844-.758 1.605-1.6 1.6H4c-.844 0-1.596-.72-1.6-1.6V4c0-.844.746-1.599 1.6-1.6zm-1.6 6.731-1.834 1.835a.8.8 0 0 1-.722.219l-2.182-.722-1.662.83V12h8v-1.269zM12 4H4v5.505l1.242-.62a.8.8 0 0 1 .509-.07l2.032.669 2.051-2.05a.8.8 0 0 1 1.132 0L12 8.468zm-6 .8a1.2 1.2 0 1 1 0 2.4 1.2 1.2 0 0 1 0-2.4" clip-rule="evenodd"/></g><defs><clipPath id="a"><path fill="#fff" d="M0 0h16v16H0z"/></clipPath></defs></svg>
